toolkits/global/packages/global-context/img/icons/newsletter.svg

<svg height="24" viewBox="0 0 24 24" width="24" xmlns="http://www.w3.org/2000/svg"><path d="m12 14.8482489 2-1.1428571v-1.7053918h-4v1.7053918zm-3-1.7142857v-2.1339632h6v2.1339632l3-1.7142857v-6.4196775h-12v6.4196775zm10-5.3839632 1.5299989.95624934c.2923814.18273835.4700011.50320827.4700011.8479983v8.44575236c0 1.1045695-.8954305 2-2 2h-14c-1.1045695 0-2-.8954305-2-2v-8.44575236c0-.34479003.1776197-.66525995.47000106-.8479983l1.52999894-.95624934v-2.75c0-.55228475.44771525-1 1-1h12c.5522847 0 1 .44771525 1 1zm0 1.17924764v3.07075236l-7 4-7-4v-3.07075236l-1 .625v8.44575236c0 .5522847.44771525 1 1 1h14c.5522847 0 1-.4477153 1-1v-8.44575236zm-10-1.92924764h6v1h-6zm-1 2h8v1h-8z" fill="#666" fill-rule="evenodd"/></svg>

<?xml version="1.0" encoding="UTF-8"?>
<svg width="24px" height="24px" viewBox="0 0 24 24" version="1.1" xmlns="http://www.w3.org/2000/svg" xmlns:xlink="http://www.w3.org/1999/xlink">
    <!-- Generator: Sketch 63.1 (92452) - https://sketch.com -->
    <title>icon-icon / newsletter</title>
    <desc>Created with Sketch.</desc>
    <g id="icon-/-newsletter" stroke="none" stroke-width="1" fill="none" fill-rule="evenodd">
        <path d="M12,14.8482489 L14,13.7053918 L14,12 L10,12 L10,13.7053918 L12,14.8482489 Z M9,13.1339632 L9,11 L15,11 L15,13.1339632 L18,11.4196775 L18,5 L6,5 L6,11.4196775 L9,13.1339632 Z M19,7.75 L20.5299989,8.70624934 C20.8223803,8.88898769 21,9.20945761 21,9.55424764 L21,18 C21,19.1045695 20.1045695,20 19,20 L5,20 C3.8954305,20 3,19.1045695 3,18 L3,9.55424764 C3,9.20945761 3.1776197,8.88898769 3.47000106,8.70624934 L5,7.75 L5,5 C5,4.44771525 5.44771525,4 6,4 L18,4 C18.5522847,4 19,4.44771525 19,5 L19,7.75 Z M19,8.92924764 L19,12 L12,16 L5,12 L5,8.92924764 L4,9.55424764 L4,18 C4,18.5522847 4.44771525,19 5,19 L19,19 C19.5522847,19 20,18.5522847 20,18 L20,9.55424764 L19,8.92924764 Z M9,7 L15,7 L15,8 L9,8 L9,7 Z M8,9 L16,9 L16,10 L8,10 L8,9 Z" id="newsletter" fill="#666666"></path>
    </g>
</svg>
